packages/blockchain-info-components/src/Images/img/alert.svg

<svg fill="none" height="32" viewBox="0 0 32 32" width="32" xmlns="http://www.w3.org/2000/svg"><path d="m16 31.8333c8.74 0 15.8333-7.0933 15.8333-15.8333 0-8.74004-7.0933-15.833373-15.8333-15.833374-8.74004-.000001-15.833373 7.093334-15.833374 15.833374-.000001 8.74 7.093334 15.8333 15.833374 15.8333zm-1.5834-23.75001h3.1667v9.50001h-3.1667zm0 12.66671h3.1667v3.1666h-3.1667z" fill="#cf1726"/></svg>

<svg width="32" height="32" viewBox="0 0 32 32" fill="none" xmlns="http://www.w3.org/2000/svg">
<path d="M16 31.8333C24.74 31.8333 31.8333 24.74 31.8333 16C31.8333 7.25996 24.74 0.166627 16 0.166626C7.25996 0.166625 0.166627 7.25996 0.166626 16C0.166625 24.74 7.25996 31.8333 16 31.8333ZM14.4166 8.08329H17.5833V17.5833H14.4166V8.08329ZM14.4166 20.75H17.5833V23.9166L14.4166 23.9166V20.75Z" fill="#CF1726"/>
</svg>
